pieces/chess7/rb.svg

<svg height="68" width="68" xmlns="http://www.w3.org/2000/svg"><path d="M30.288 35.312l3.52 3.712 3.712-3.712-3.712-3.52zm18.176-10.304l2.432 19.52 2.816 6.016v12.928H14.16V50.544l2.624-6.016 2.432-19.52-4.928-10.752 3.072-9.728H26v8.32h3.712v-8.32h8.768v8.32h3.648v-8.32h8.64l3.072 9.728zM19.088 46.384l-1.408 3.072H50l-1.536-3.072zm27.2-22.784H21.712l.576 2.944h23.68z"/><path d="M22.132 25.464c-.11-.575-.24-1.23-.289-1.455l-.087-.41h24.371v.612c0 .336-.052.99-.116 1.454l-.116.844h-23.56zm9.87 11.612l-1.67-1.779 1.71-1.703 1.71-1.704.506.44a73.023 73.023 0 0 1 1.824 1.715L37.4 35.32l-1.77 1.777c-.974.977-1.813 1.773-1.864 1.768-.052-.005-.847-.81-1.765-1.788zM18.196 48.464c.236-.525.535-1.18.664-1.455l.234-.5h29.392l.732 1.455.731 1.454H17.768z" fill="#fff" fill-rule="evenodd"/></svg>

<svg width="68" height="68" viewBox="0 0 68 68" fill="none" xmlns="http://www.w3.org/2000/svg">
<path d="M48.464 25.008L50.896 44.528L53.712 50.544V63.472H14.16V50.544L16.784 44.528L19.216 25.008L14.288 14.256L17.36 4.528H26V12.848H29.712V4.528H38.48V12.848H42.128V4.528H50.768L53.84 14.256L48.464 25.008Z" fill="black"/>
<path fill-rule="evenodd" clip-rule="evenodd" d="M22.132 25.464C22.022 24.889 21.892 24.234 21.843 24.009L21.756 23.599H46.127V24.211C46.127 24.547 46.075 25.201 46.011 25.665L45.895 26.509H22.335L22.132 25.464ZM32.002 37.076L30.332 35.297L32.042 33.594L33.752 31.89L34.258 32.33C34.8758 32.8912 35.4839 33.4629 36.082 34.045L37.4 35.32L35.63 37.097C34.656 38.074 33.817 38.87 33.766 38.865C33.714 38.86 32.919 38.055 32.001 37.077L32.002 37.076ZM18.196 48.464C18.432 47.939 18.731 47.284 18.86 47.009L19.094 46.509H48.486L49.218 47.964L49.949 49.418H17.768L18.196 48.464Z" fill="white"/>
</svg>
